dest/img/img-trust-13.svg

<svg fill="none" height="28" viewBox="0 0 175 28" width="175" xmlns="http://www.w3.org/2000/svg"><path d="m46.9575 22.12v-13.46804h-3.647v1.48404c-1.1832-.79803-2.7283-1.65204-4.4962-1.72204-6.2779-.266-9.9667 4.22804-9.9667 9.53404 0 5.124 3.6749 9.422 9.8832 9.534 3.2155.056 6.1387-2.576 6.1387-2.576l2.4778 2.464 2.3942-2.492zm-7.9344 1.778c-3.9254.364-6.6816-2.758-6.6816-5.866 0-3.15 2.5752-6.538 6.793-5.978 1.7678.238 3.299 1.4 4.176 2.576v6.65c-.9187 1.26-2.5195 2.45-4.2874 2.618zm86.3319-1.778v-13.62204h-3.647v1.63804c-1.183-.79803-2.728-1.65204-4.496-1.72204-6.278-.266-9.967 4.22804-9.967 9.53404 0 5.124 3.675 9.422 9.883 9.534 3.216.056 6.139-2.576 6.139-2.576l2.478 2.464 2.394-2.492zm-7.934 1.778c-3.926.364-6.682-2.758-6.682-5.866 0-3.15 2.575-6.538 6.793-5.978 1.768.238 3.299 1.4 4.176 2.576v6.65c-.919 1.26-2.52 2.45-4.287 2.618zm-107.0592 3.57c6.0831 0 9.8832-4.41 9.8832-9.534 0-5.306-3.7027-9.80004-9.9667-9.53404-1.76782.07-3.32686.92401-4.49614 1.72204v-8.80604h-3.66096v20.80404s2.14368 5.348 8.2406 5.348zm-4.59356-6.188v-6.65c.87696-1.176 2.40816-2.338 4.176-2.576 4.21776-.56 6.79296 2.842 6.79296 5.978 0 3.108-2.7562 6.244-6.6816 5.866-1.76784-.168-3.36864-1.358-4.28736-2.618zm90.22946 6.188c6.0833 0 9.8833-4.41 9.8833-9.534 0-5.306-3.703-9.80004-9.9668-9.53404-1.7679.07-3.3269.92401-4.4962 1.72204v-8.80604h-3.647v20.80404s2.1436 5.348 8.2267 5.348zm-4.5936-6.188v-6.65c.8769-1.176 2.4082-2.338 4.176-2.576 4.2177-.56 6.7929 2.842 6.7929 5.978 0 3.108-2.7561 6.244-6.6816 5.866-1.7678-.168-3.3686-1.358-4.2873-2.618zm76.0729.84v-20.80404h-3.647v8.80604c-1.183-.79803-2.728-1.65204-4.496-1.72204-6.278-.266-9.967 4.22804-9.967 9.53404 0 5.124 3.786 9.534 9.883 9.534 6.083 0 8.227-5.348 8.227-5.348zm-7.935 1.778c-3.925.364-6.681-2.758-6.681-5.866 0-3.15 2.575-6.538 6.793-5.978 1.768.238 3.299 1.4 4.176 2.576v6.65c-.905 1.26-2.506 2.45-4.288 2.618zm-133.1304-22.58204v25.90004h-3.7166v-25.90004zm33.0182 26.18004c-5.039 0-9.4795-4.074-9.4934-9.534-.0139-5.502 4.4405-9.59004 9.4934-9.59004 3.0346 0 5.3314 1.31601 6.9183 3.02404 0 0-2.4778 2.338-2.7005 2.506-.4872-.602-2.1019-1.848-4.2178-1.848-3.1459 0-5.8464 2.576-5.8324 5.894.0139 3.29 2.7283 5.866 5.8324 5.852 2.1298-.014 3.6888-1.148 4.3709-1.974l2.5613 2.646c-1.5869 1.75-4.1203 3.024-6.9322 3.024zm79.1772-3.654c2.102 0 3.271-.91 4.245-1.792v-13.58004h3.675v13.58004l2.631 2.688-2.394 2.492-1.949-1.918s-2.505 2.226-6.222 2.226c-6.181 0-9.563-5.264-9.563-9.618v-9.45004h3.675v9.11404c.014 2.856 2.004 6.258 5.902 6.258zm-69.6698-22.55404h3.7167v25.92804h-3.7167zm12.6394 7.364h4.6353l-8.3798 9.52004 9.2289 9.03h-5.039l-8.8114-9.016zm89.8114-7.322c1.128 0 2.088.896 2.088 2.086 0 1.204-.946 2.1-2.088 2.1-1.141 0-2.102-.896-2.102-2.1.014-1.176.961-2.086 2.102-2.086zm0 3.878c.961 0 1.713-.77 1.713-1.792 0-.994-.752-1.778-1.713-1.778-.974 0-1.712.77-1.712 1.778 0 1.022.738 1.792 1.712 1.792zm-.807-3.01h.933c.584 0 .849.224.849.7 0 .448-.279.63-.641.672l.696 1.078h-.403l-.668-1.05h-.404v1.05h-.376v-2.45zm.376 1.092h.39c.334 0 .64-.014.64-.406 0-.322-.278-.378-.529-.378h-.501z" fill="#576472"/></svg>

<svg width="175" height="28" viewBox="0 0 175 28" fill="none" xmlns="http://www.w3.org/2000/svg">
<path d="M46.9575 22.12V8.65196H43.3105V10.136C42.1273 9.33797 40.5822 8.48396 38.8143 8.41396C32.5364 8.14796 28.8476 12.642 28.8476 17.948C28.8476 23.072 32.5225 27.37 38.7308 27.482C41.9463 27.538 44.8695 24.906 44.8695 24.906L47.3473 27.37L49.7415 24.878L46.9575 22.12ZM39.0231 23.898C35.0977 24.262 32.3415 21.14 32.3415 18.032C32.3415 14.882 34.9167 11.494 39.1345 12.054C40.9023 12.292 42.4335 13.454 43.3105 14.63V21.28C42.3918 22.54 40.791 23.73 39.0231 23.898ZM125.355 22.12V8.49796H121.708V10.136C120.525 9.33797 118.98 8.48396 117.212 8.41396C110.934 8.14796 107.245 12.642 107.245 17.948C107.245 23.072 110.92 27.37 117.128 27.482C120.344 27.538 123.267 24.906 123.267 24.906L125.745 27.37L128.139 24.878L125.355 22.12ZM117.421 23.898C113.495 24.262 110.739 21.14 110.739 18.032C110.739 14.882 113.314 11.494 117.532 12.054C119.3 12.292 120.831 13.454 121.708 14.63V21.28C120.789 22.54 119.188 23.73 117.421 23.898ZM10.3618 27.468C16.4449 27.468 20.245 23.058 20.245 17.934C20.245 12.628 16.5423 8.13396 10.2783 8.39996C8.51048 8.46996 6.95144 9.32397 5.78216 10.122V1.31596H2.1212V22.12C2.1212 22.12 4.26488 27.468 10.3618 27.468ZM5.76824 21.28V14.63C6.6452 13.454 8.1764 12.292 9.94424 12.054C14.162 11.494 16.7372 14.896 16.7372 18.032C16.7372 21.14 13.981 24.276 10.0556 23.898C8.28776 23.73 6.68696 22.54 5.76824 21.28ZM95.9977 27.468C102.081 27.468 105.881 23.058 105.881 17.934C105.881 12.628 102.178 8.13396 95.9142 8.39996C94.1463 8.46996 92.5873 9.32397 91.418 10.122V1.31596H87.771V22.12C87.771 22.12 89.9146 27.468 95.9977 27.468ZM91.4041 21.28V14.63C92.281 13.454 93.8123 12.292 95.5801 12.054C99.7978 11.494 102.373 14.896 102.373 18.032C102.373 21.14 99.6169 24.276 95.6914 23.898C93.9236 23.73 92.3228 22.54 91.4041 21.28ZM167.477 22.12V1.31596H163.83V10.122C162.647 9.32397 161.102 8.46996 159.334 8.39996C153.056 8.13396 149.367 12.628 149.367 17.934C149.367 23.058 153.153 27.468 159.25 27.468C165.333 27.468 167.477 22.12 167.477 22.12ZM159.542 23.898C155.617 24.262 152.861 21.14 152.861 18.032C152.861 14.882 155.436 11.494 159.654 12.054C161.422 12.292 162.953 13.454 163.83 14.63V21.28C162.925 22.54 161.324 23.73 159.542 23.898ZM26.4116 1.31596V27.216H22.695V1.31596H26.4116ZM59.4298 27.496C54.3908 27.496 49.9503 23.422 49.9364 17.962C49.9225 12.46 54.3769 8.37196 59.4298 8.37196C62.4644 8.37196 64.7612 9.68797 66.3481 11.396C66.3481 11.396 63.8703 13.734 63.6476 13.902C63.1604 13.3 61.5457 12.054 59.4298 12.054C56.2839 12.054 53.5834 14.63 53.5974 17.948C53.6113 21.238 56.3257 23.814 59.4298 23.8C61.5596 23.786 63.1186 22.652 63.8007 21.826L66.362 24.472C64.7751 26.222 62.2417 27.496 59.4298 27.496ZM138.607 23.842C140.709 23.842 141.878 22.932 142.852 22.05V8.46996H146.527V22.05L149.158 24.738L146.764 27.23L144.815 25.312C144.815 25.312 142.31 27.538 138.593 27.538C132.412 27.538 129.03 22.274 129.03 17.92V8.46996H132.705V17.584C132.719 20.44 134.709 23.842 138.607 23.842ZM68.9372 1.28796H72.6539V27.216H68.9372V1.28796ZM81.5766 8.65196H86.2119L77.8321 18.172L87.061 27.202H82.022L73.2106 18.186L81.5766 8.65196ZM171.388 1.32996C172.516 1.32996 173.476 2.22596 173.476 3.41596C173.476 4.61996 172.53 5.51596 171.388 5.51596C170.247 5.51596 169.286 4.61996 169.286 3.41596C169.3 2.23996 170.247 1.32996 171.388 1.32996ZM171.388 5.20796C172.349 5.20796 173.101 4.43796 173.101 3.41596C173.101 2.42196 172.349 1.63796 171.388 1.63796C170.414 1.63796 169.676 2.40796 169.676 3.41596C169.676 4.43796 170.414 5.20796 171.388 5.20796ZM170.581 2.19796H171.514C172.098 2.19796 172.363 2.42196 172.363 2.89796C172.363 3.34596 172.084 3.52796 171.722 3.56996L172.418 4.64796H172.015L171.347 3.59796H170.943V4.64796H170.567V2.19796H170.581ZM170.957 3.28996H171.347C171.681 3.28996 171.987 3.27596 171.987 2.88396C171.987 2.56196 171.709 2.50596 171.458 2.50596H170.957V3.28996Z" fill="#576472"/>
</svg>
